.icons/oomox-ad/22x22/apps/eric.svg

<svg xmlns="http://www.w3.org/2000/svg" width="22" height="22" version="1">
 <path fill="#ffc851" d="m16 6v2.5c0 1.385-1.115 2.5-2.5 2.5h-5s-2.5 0-2.5 2.5v4.375c0 1.731 1.951 3.125 4.375 3.125h1.25c2.424 0 4.375-1.394 4.375-3.125v-0.875h-5v-1h6.875c1.731 0 3.125-1.951 3.125-4.375v-1.25c0-2.424-1.394-4.375-3.125-4.375h-1.875zm-2.5 13a0.5 0.5 0 0 1 0.5 0.5 0.5 0.5 0 0 1 -0.5 0.5 0.5 0.5 0 0 1 -0.5 -0.5 0.5 0.5 0 0 1 0.5 -0.5z"/>
 <path fill="#4795d1" d="m10.375 1c-2.424 0-4.375 1.3938-4.375 3.125v0.875h5v1h-6.875c-1.7312 0-3.125 1.951-3.125 4.375v1.25c0 2.424 1.3938 4.375 3.125 4.375h1.875v-2.5c0-1.385 1.115-2.5 2.5-2.5h5s2.5 0 2.5-2.5v-4.375c0-1.7312-1.951-3.125-4.375-3.125h-1.25z"/>
 <path opacity=".2" d="m8.5 2.5a0.5 0.5 0 0 1 0.5 0.5 0.5 0.5 0 0 1 -0.5 0.5 0.5 0.5 0 0 1 -0.5 -0.5 0.5 0.5 0 0 1 0.5 -0.5z"/>
 <path fill="#fff" d="m8.5 2a0.5 0.5 0 0 1 0.5 0.5 0.5 0.5 0 0 1 -0.5 0.5 0.5 0.5 0 0 1 -0.5 -0.5 0.5 0.5 0 0 1 0.5 -0.5z"/>
 <path fill="#fff" opacity=".1" d="m10.375 1c-2.424 0-4.375 1.3938-4.375 3.125v0.5c0-1.7312 1.951-3.125 4.375-3.125h1.25c2.424 0 4.375 1.3938 4.375 3.125v-0.5c0-1.7312-1.951-3.125-4.375-3.125zm-6.25 5c-1.7312 0-3.125 1.951-3.125 4.375v0.5c0-2.424 1.3938-4.375 3.125-4.375h6.875v-0.5h-5z"/>
 <path fill="#fff" opacity=".1" d="m16 6v0.5h1.875c1.731 0 3.125 1.951 3.125 4.375v-0.5c0-2.424-1.394-4.375-3.125-4.375h-1.875zm0 2.5c0 1.385-1.115 2.5-2.5 2.5h-5s-2.5 0-2.5 2.5v0.5c0-2.5 2.5-2.5 2.5-2.5h5c1.385 0 2.5-1.115 2.5-2.5v-0.5zm-5 8.5v0.5h5v-0.5h-5zm2.0675 2.75a0.5 0.5 0 0 0 -0.068 0.25 0.5 0.5 0 0 0 0.5 0.5 0.5 0.5 0 0 0 0.5 -0.5 0.5 0.5 0 0 0 -0.068 -0.25 0.5 0.5 0 0 1 -0.432 0.25 0.5 0.5 0 0 1 -0.432 -0.25z"/>
 <path opacity=".2" d="m6 5v0.5h5v-0.5zm10 3.5c0 2.5-2.5 2.5-2.5 2.5h-5c-1.385 0-2.5 1.115-2.5 2.5v0.5c0-1.385 1.115-2.5 2.5-2.5h5s2.5 0 2.5-2.5zm-15 3.125v0.5c0 2.424 1.3938 4.375 3.125 4.375h1.875v-0.5h-1.875c-1.7312 0-3.125-1.951-3.125-4.375z"/>
 <path opacity=".2" d="m21 11.625c0 2.424-1.394 4.375-3.125 4.375h-6.875v0.5h6.875c1.731 0 3.125-1.951 3.125-4.375zm-15 6.25v0.5c0 1.7312 1.9512 3.125 4.375 3.125h1.25c2.424 0 4.375-1.394 4.375-3.125v-0.5c0 1.731-1.951 3.125-4.375 3.125h-1.25c-2.424 0-4.375-1.394-4.375-3.125z"/>
 <circle fill="#cc5e55" cx="17" cy="17" r="5"/>
 <path fill="#fff" d="m16.244 14-0.06673 0.7902a2.3784 2.3572 0 0 0 -0.6951 0.39844l-0.72465-0.33818-0.75675 1.2991 0.65795 0.45285a2.3784 2.3572 0 0 0 -0.03632 0.3976 2.3784 2.3572 0 0 0 0.03461 0.39928l-0.657 0.4515 0.75675 1.2991 0.72295-0.33733a2.3784 2.3572 0 0 0 0.6968 0.39592l0.06672 0.79185h1.5135l0.06672-0.7902a2.3784 2.3572 0 0 0 0.6951 -0.39844l0.72465 0.33817 0.75675-1.2991-0.65795-0.45285a2.3784 2.3572 0 0 0 0.03632 -0.3976 2.3784 2.3572 0 0 0 -0.03461 -0.39928l0.6565-0.4505-0.75675-1.2991-0.723 0.33734a2.3784 2.3572 0 0 0 -0.6965 -0.396l-0.06672-0.79185h-1.5135zm0.75675 2.1428a0.86485 0.85715 0 0 1 0.864 0.857 0.86485 0.85715 0 0 1 -0.865 0.857 0.86485 0.85715 0 0 1 -0.865 -0.857 0.86485 0.85715 0 0 1 0.865 -0.857z"/>
</svg>

<svg xmlns="http://www.w3.org/2000/svg" width="22" height="22" version="1">
 <path style="fill:#ffa923" d="M 16,6 V 8.5 C 16,9.885 14.885,11 13.5,11 h -5 C 8.5,11 6,11 6,13.5 v 4.375 C 6,19.606 7.951,21 10.375,21 h 1.25 C 14.049,21 16,19.606 16,17.875 V 17 h -5 v -1 h 6.875 C 19.606,16 21,14.049 21,11.625 v -1.25 C 21,7.951 19.606,6 17.875,6 Z"/>
 <path style="opacity:0.2" d="M 13.5,19.5 A 0.5,0.5 0 0 1 14,20 0.5,0.5 0 0 1 13.5,20.5 0.5,0.5 0 0 1 13,20 0.5,0.5 0 0 1 13.5,19.5 Z"/>
 <path style="fill:#ffffff" d="M 13.5,19 A 0.5,0.5 0 0 1 14,19.5 0.5,0.5 0 0 1 13.5,20 0.5,0.5 0 0 1 13,19.5 0.5,0.5 0 0 1 13.5,19 Z"/>
 <path style="opacity:0.2" d="M 10.375,1.5 C 7.951,1.5 6,2.8938 6,4.625 V 5.5 h 5 v 1 H 4.125 C 2.3938,6.5 1,8.451 1,10.875 v 1.25 C 1,14.549 2.3938,16.5 4.125,16.5 H 6 V 14 c 0,-1.385 1.115,-2.5 2.5,-2.5 h 5 c 0,0 2.5,0 2.5,-2.5 V 4.625 C 16,2.8938 14.049,1.5 11.625,1.5 Z"/>
 <path style="fill:#3084e0" d="M 10.375,1 C 7.951,1 6,2.3938 6,4.125 V 5 h 5 V 6 H 4.125 C 2.3938,6 1,7.951 1,10.375 v 1.25 C 1,14.049 2.3938,16 4.125,16 H 6 V 13.5 C 6,12.115 7.115,11 8.5,11 h 5 c 0,0 2.5,0 2.5,-2.5 V 4.125 C 16,2.3938 14.049,1 11.625,1 Z"/>
 <path style="opacity:0.2" d="M 8.5,2.5 A 0.5,0.5 0 0 1 9,3 0.5,0.5 0 0 1 8.5,3.5 0.5,0.5 0 0 1 8,3 0.5,0.5 0 0 1 8.5,2.5 Z"/>
 <path style="fill:#ffffff" d="M 8.5,2 A 0.5,0.5 0 0 1 9,2.5 0.5,0.5 0 0 1 8.5,3 0.5,0.5 0 0 1 8,2.5 0.5,0.5 0 0 1 8.5,2 Z"/>
 <path style="opacity:0.2;fill:#ffffff" d="M 10.375,1 C 7.951,1 6,2.3938 6,4.125 v 0.5 C 6,2.8938 7.951,1.5 10.375,1.5 h 1.25 C 14.049,1.5 16,2.8938 16,4.625 v -0.5 C 16,2.3938 14.049,1 11.625,1 Z M 4.125,6 C 2.3938,6 1,7.951 1,10.375 v 0.5 C 1,8.451 2.3938,6.5 4.125,6.5 H 11 V 6 H 6 Z"/>
 <path style="opacity:0.2;fill:#ffffff" d="m 16,6 v 0.5 h 1.875 C 19.606,6.5 21,8.451 21,10.875 v -0.5 C 21,7.951 19.606,6 17.875,6 Z m -5,11 v 0.5 h 5 V 17 Z"/>
 <path style="opacity:0.2" d="M 21,11.625 C 21,14.049 19.606,16 17.875,16 H 11 v 0.5 h 6.875 C 19.606,16.5 21,14.549 21,12.125 Z m -15,6.25 v 0.5 c 0,1.7312 1.9512,3.125 4.375,3.125 h 1.25 C 14.049,21.5 16,20.106 16,18.375 v -0.5 C 16,19.606 14.049,21 11.625,21 h -1.25 C 7.951,21 6,19.606 6,17.875 Z"/>
 <circle style="fill:#dc5145" cx="17" cy="17" r="5"/>
 <path style="fill:#ffffff" d="m 16.244,14 -0.06673,0.7902 a 2.3784,2.3572 0 0 0 -0.6951,0.39844 l -0.72465,-0.33818 -0.75675,1.2991 0.65795,0.45285 a 2.3784,2.3572 0 0 0 -0.03632,0.3976 2.3784,2.3572 0 0 0 0.03461,0.39928 l -0.657,0.4515 0.75675,1.2991 0.72295,-0.33733 a 2.3784,2.3572 0 0 0 0.6968,0.39592 l 0.06672,0.79185 h 1.5135 l 0.06672,-0.7902 a 2.3784,2.3572 0 0 0 0.6951,-0.39844 l 0.72465,0.33817 0.75675,-1.2991 -0.65795,-0.45285 a 2.3784,2.3572 0 0 0 0.03632,-0.3976 2.3784,2.3572 0 0 0 -0.03461,-0.39928 l 0.6565,-0.4505 -0.75675,-1.2991 -0.723,0.33734 a 2.3784,2.3572 0 0 0 -0.6965,-0.396 l -0.06672,-0.79185 h -1.5135 z m 0.75675,2.1428 a 0.86485,0.85715 0 0 1 0.864,0.857 0.86485,0.85715 0 0 1 -0.865,0.857 0.86485,0.85715 0 0 1 -0.865,-0.857 0.86485,0.85715 0 0 1 0.865,-0.857 z"/>
</svg>
